storage/app/icons/phosphoricons/thin/book-open-text-thin.svg

<svg xmlns="http://www.w3.org/2000/svg" fill="currentColor" viewBox="0 0 256 256"><path d="M232 52h-72a36 36 0 0 0-32 19.54A36 36 0 0 0 96 52H24a4 4 0 0 0-4 4v144a4 4 0 0 0 4 4h72a28 28 0 0 1 28 28 4 4 0 0 0 8 0 28 28 0 0 1 28-28h72a4 4 0 0 0 4-4V56a4 4 0 0 0-4-4M96 196H28V60h68a28 28 0 0 1 28 28v121.4A35.94 35.94 0 0 0 96 196m132 0h-68a35.94 35.94 0 0 0-28 13.41V88a28 28 0 0 1 28-28h68ZM160 92h40a4 4 0 0 1 0 8h-40a4 4 0 0 1 0-8m44 36a4 4 0 0 1-4 4h-40a4 4 0 0 1 0-8h40a4 4 0 0 1 4 4m0 32a4 4 0 0 1-4 4h-40a4 4 0 0 1 0-8h40a4 4 0 0 1 4 4"/></svg>

<svg xmlns="http://www.w3.org/2000/svg" viewBox="0 0 256 256" fill="currentColor"><path d="M232,52H160a36,36,0,0,0-32,19.54A36,36,0,0,0,96,52H24a4,4,0,0,0-4,4V200a4,4,0,0,0,4,4H96a28,28,0,0,1,28,28,4,4,0,0,0,8,0,28,28,0,0,1,28-28h72a4,4,0,0,0,4-4V56A4,4,0,0,0,232,52ZM96,196H28V60H96a28,28,0,0,1,28,28V209.4A35.94,35.94,0,0,0,96,196Zm132,0H160a35.94,35.94,0,0,0-28,13.41V88a28,28,0,0,1,28-28h68ZM160,92h40a4,4,0,0,1,0,8H160a4,4,0,0,1,0-8Zm44,36a4,4,0,0,1-4,4H160a4,4,0,0,1,0-8h40A4,4,0,0,1,204,128Zm0,32a4,4,0,0,1-4,4H160a4,4,0,0,1,0-8h40A4,4,0,0,1,204,160Z"/></svg>
